X: 19528
T: James And The Giant Peach
R: jig
M: 6/8
K: Adorian
G|AcA E2c|BGB dBG|AcA E2c|BGE DBG|
AcA E2c|BGB deg|age dBG|EAA A2:|
a|age aba|gef ged|cAG E2c|BGB deg|
age aba|gef ~g3|age dBG|EAA A2a|
age aba|gef ged|cAG E2c|BGE DBG|
AcA E2c|BGB deg|age dBG|EAA A2||
D|EAA DAA|EAD EAc|dDc BAG|AGE DFG|
EAA DAA|EAD EAc|dgd BAG|EAA A2:|
G|"Am"AcA "Am"E2c|"Em"BGB "G"dBG|"Am"AcA "Am"E2c|"Em"BGE "G"DBG|
"Am"AcA "Am"E2c|"Em"BGB "G"deg|"Am"age "G"dBG|"Am"EAA "Am"A2:|
a|"Am"age "Am"aba|"Em"gef "Em"ged|"Am"cAG "Am"E2c|"Em"BGB "G"deg|
"Am"age "Am"aba|"Em"gef "Em"~g3|"Am"age "G"dBG|"Am"EAA "Am"A2a|
"Am"age "Am"aba|"Em"gef "Em"ged|"Am"cAG "Am"E2c|"Em"BGE "G"DBG|
"Am"AcA "Am"E2c|"Em"BGB "G"deg|"Am"age "G"dBG|"Am"EAA "D"A2||
D|"Am"EAA "D"DAA|"Am"EAD "Am"EAc|"D"dDc "Em"BAG|"Am"AGE "D"DFG|
"Am"EAA "D"DAA|"Am"EAD "Am"EAc|"G"dgd "Em"BAG|"Am"EAA "D"A2:|

